frontend/src/images/GuildHeader-images/link-icon.svg

<!DOCTYPE svg PUBLIC "-//W3C//DTD SVG 1.1//EN" "http://www.w3.org/Graphics/SVG/1.1/DTD/svg11.dtd">
<!-- Uploaded to: SVG Repo, www.svgrepo.com, Transformed by: SVG Repo Mixer Tools -->
<svg width="800px" height="800px" viewBox="0 0 24 24" fill="none" xmlns="http://www.w3.org/2000/svg">
<g id="SVGRepo_bgCarrier" stroke-width="0"/>
<g id="SVGRepo_tracerCarrier" stroke-linecap="round" stroke-linejoin="round"/>
<g id="SVGRepo_iconCarrier"> <path d="M10.0464 14C8.54044 12.4882 8.67609 9.90087 10.3494 8.22108L15.197 3.35462C16.8703 1.67483 19.4476 1.53865 20.9536 3.05046C22.4596 4.56228 22.3239 7.14956 20.6506 8.82935L18.2268 11.2626" stroke="#f27f21" stroke-width="2.016" stroke-linecap="round"/> <path d="M13.9536 10C15.4596 11.5118 15.3239 14.0991 13.6506 15.7789L11.2268 18.2121L8.80299 20.6454C7.12969 22.3252 4.55237 22.4613 3.0464 20.9495C1.54043 19.4377 1.67609 16.8504 3.34939 15.1706L5.77323 12.7373" stroke="#f27f21" stroke-width="2.016" stroke-linecap="round"/> </g>
</svg>

<svg width="800" height="800" viewBox="0 0 24 24" fill="none" xmlns="http://www.w3.org/2000/svg"><g stroke="#f27f21" stroke-width="2.016" stroke-linecap="round"><path d="M10.046 14c-1.506-1.512-1.37-4.1.303-5.779l4.848-4.866c1.673-1.68 4.25-1.816 5.757-.305 1.506 1.512 1.37 4.1-.303 5.78l-2.424 2.433"/><path d="M13.954 10c1.506 1.512 1.37 4.1-.303 5.779l-2.424 2.433-2.424 2.433c-1.673 1.68-4.25 1.816-5.757.305-1.506-1.512-1.37-4.1.303-5.78l2.424-2.433"/></g></svg>
